flaticon/symbols/venus.svg

<svg xmlns="http://www.w3.org/2000/svg" width="32" height="32" viewBox="0 0 24 24">
    <path d="M 18.621094 8.691406 C 18.621094 5.039062 15.652344 2.070312 12 2.070312 C 8.347656 2.070312 5.378906 5.039062 5.378906 8.691406 C 5.378906 12.339844 8.347656 15.308594 12 15.308594 C 15.652344 15.308594 18.621094 12.339844 18.621094 8.691406 Z M 12 14.484375 C 8.804688 14.484375 6.207031 11.882812 6.207031 8.691406 C 6.207031 5.496094 8.804688 2.898438 12 2.898438 C 15.195312 2.898438 17.792969 5.496094 17.792969 8.691406 C 17.792969 11.882812 15.195312 14.484375 12 14.484375 Z M 12 14.484375"/>
    <path d="M 20.691406 8.691406 C 20.691406 3.898438 16.792969 0 12 0 C 7.207031 0 3.308594 3.898438 3.308594 8.691406 C 3.308594 12.828125 6.308594 16.429688 10.34375 17.210938 L 10.34375 18.207031 L 9.101562 18.207031 C 8.191406 18.207031 7.449219 18.949219 7.449219 19.863281 C 7.449219 20.773438 8.191406 21.515625 9.101562 21.515625 L 10.34375 21.515625 L 10.34375 22.34375 C 10.34375 23.257812 11.085938 24 12 24 C 12.914062 24 13.65625 23.257812 13.65625 22.34375 L 13.65625 21.515625 L 14.898438 21.515625 C 15.808594 21.515625 16.550781 20.773438 16.550781 19.863281 C 16.550781 18.949219 15.808594 18.207031 14.898438 18.207031 L 13.65625 18.207031 L 13.65625 17.210938 C 17.691406 16.429688 20.691406 12.828125 20.691406 8.691406 Z M 12.820312 16.898438 L 12.828125 19.035156 L 14.898438 19.035156 C 15.351562 19.035156 15.722656 19.40625 15.722656 19.863281 C 15.722656 20.320312 15.351562 20.691406 14.898438 20.691406 L 12.828125 20.691406 L 12.828125 22.34375 C 12.828125 22.800781 12.457031 23.171875 12 23.171875 C 11.542969 23.171875 11.171875 22.800781 11.171875 22.34375 L 11.171875 20.691406 L 9.101562 20.691406 C 8.648438 20.691406 8.277344 20.320312 8.277344 19.863281 C 8.277344 19.40625 8.648438 19.035156 9.101562 19.035156 L 11.171875 19.035156 L 11.175781 16.957031 L 11.214844 16.511719 L 10.832031 16.453125 C 7.015625 15.882812 4.136719 12.546875 4.136719 8.691406 C 4.136719 4.355469 7.664062 0.828125 12 0.828125 C 16.335938 0.828125 19.863281 4.355469 19.863281 8.691406 C 19.863281 12.546875 16.984375 15.882812 13.167969 16.453125 L 12.785156 16.511719 Z M 12.820312 16.898438"/>
</svg>

<svg xmlns="http://www.w3.org/2000/svg" width="32" height="32" viewBox="0 0 24 24">
    <path d="M18.621 8.691A6.627 6.627 0 0 0 12 2.071a6.627 6.627 0 0 0-6.621 6.62c0 3.649 2.969 6.618 6.621 6.618 3.652 0 6.621-2.97 6.621-6.618zM12 14.484a5.8 5.8 0 0 1-5.793-5.793A5.798 5.798 0 0 1 12 2.898a5.798 5.798 0 0 1 5.793 5.793A5.8 5.8 0 0 1 12 14.484zm0 0"/>
    <path d="M20.691 8.691C20.691 3.898 16.793 0 12 0 7.207 0 3.309 3.898 3.309 8.691c0 4.137 3 7.739 7.035 8.52v.996H9.102c-.91 0-1.653.742-1.653 1.656 0 .91.742 1.653 1.653 1.653h1.242v.828a1.657 1.657 0 0 0 3.312 0v-.828h1.242a1.655 1.655 0 0 0 0-3.309h-1.242v-.996c4.035-.781 7.035-4.383 7.035-8.52zm-7.87 8.207l.007 2.137h2.07a.828.828 0 0 1 0 1.656h-2.07v1.653a.829.829 0 0 1-1.656 0V20.69h-2.07a.828.828 0 0 1 0-1.656h2.07l.004-2.078.039-.445-.383-.059c-3.816-.57-6.695-3.906-6.695-7.762C4.137 4.355 7.664.828 12 .828s7.863 3.527 7.863 7.863c0 3.856-2.879 7.192-6.695 7.762l-.383.059zm0 0"/>
</svg>
